X: 1
T: Lampy
M: 6/8
L: 1/8
R: jig
K: Emin
|: (E2B) B^cd | (E2B) B^cd | AFD AFD | AFD AFD |
(E2B) B^cd | (E2B) B^cd | bag agf |1 ede efe :|2 ede e3 ||
b2a ge(b- | b2a) gfe | afe def | afe d^cd |
b2a ge(b- | b2a) gfe | EFG FGA | GAB BcB |
b2a ge(b- |b2a) gfe | afe def | afe d^cd |
b2a ge(b- | b2a) gfe | bag agf | efe e3 |
